X:787
T:Reel 787
M:4/4
K:Gmaj
L:1/8
c|Bdge d2dB|ABcB AFDF|Bdgf edcB|cdef g2ge|dged cBAB|cAag fedc|BcBA GBdg|ecAc BGG|d|gfgd Bddf|gfag fdef|gfgd BcdB|cdef g2df|gfgd egdB|cBdB cAdc|Bdef gage|dBAc BGG|
